src/assets/images/icon-yandex-music.svg

<svg fill="none" height="118" viewBox="0 0 118 118" width="118" xmlns="http://www.w3.org/2000/svg"><path d="m23.8549 11.3473c8.7272-6.46673 19.0419-10.375932 29.7923-11.3473v17.7892c-6.9493.9009-13.5859 3.5614-19.2629 7.768-7.1084 5.2673-12.3358 12.6796-14.9113 21.1436-2.5754 8.4641-2.3625 17.5318.6074 25.8654 2.9699 8.334 8.5395 15.4932 15.8873 20.4208s16.0847 7.363 24.9222 6.9486c8.8374-.4156 17.3073-3.6602 24.1609-9.255 6.853-5.5955 11.7267-13.245 13.9022-21.8204 1.518-5.9817 1.666-12.193.4774-18.1812l14.9376-12.0093-.01-.0968c4.033 11.0923 4.649 23.16 1.738 34.6361-3.108 12.2507-10.07 23.1786-19.8606 31.172-9.7906 7.992-21.8903 12.627-34.5153 13.22-12.625.594-25.1064-2.886-35.6033-9.926-10.4968-7.039-18.45337-17.2661-22.69601-29.1718-4.242683-11.9054-4.54686-24.8592-.86769-36.9507 3.67919-12.0916 11.1469-22.6805 21.3018-30.2052z" fill="#737373"/><path d="m103.105 19.6473.062.1568-9.9821 15.8549c-3.6306-5.3796-8.495-9.8574-14.1883-13.0268v36.0808c0 11.07-8.9738 20.044-20.0438 20.044s-20.044-8.974-20.044-20.044 8.974-20.044 20.044-20.044c4.1487 0 8.0031 1.2605 11.201 3.4193v-41.265447c13.0134 2.503017 24.5042 9.285047 32.9512 18.824447z" fill="#fff"/></svg>

<svg width="118" height="118" viewBox="0 0 118 118" fill="none" xmlns="http://www.w3.org/2000/svg">
<path d="M23.8549 11.3473C32.5821 4.88057 42.8968 0.971368 53.6472 0V17.7892C46.6979 18.6901 40.0613 21.3506 34.3843 25.5572C27.2759 30.8245 22.0485 38.2368 19.473 46.7008C16.8976 55.1649 17.1105 64.2326 20.0804 72.5662C23.0503 80.9002 28.6199 88.0594 35.9677 92.987C43.3155 97.9146 52.0524 100.35 60.8899 99.9356C69.7273 99.52 78.1972 96.2754 85.0508 90.6806C91.9038 85.0851 96.7775 77.4356 98.953 68.8602C100.471 62.8785 100.619 56.6672 99.4304 50.679L114.368 38.6697L114.358 38.5729C118.391 49.6652 119.007 61.7329 116.096 73.209C112.988 85.4597 106.026 96.3876 96.2354 104.381C86.4448 112.373 74.3451 117.008 61.7201 117.601C49.0951 118.195 36.6137 114.715 26.1168 107.675C15.62 100.636 7.66343 90.4089 3.42079 78.5032C-0.821893 66.5978 -1.12607 53.644 2.5531 41.5525C6.23229 29.4609 13.7 18.872 23.8549 11.3473Z" fill="#737373"/>
<path d="M103.105 19.6473L103.167 19.8041L93.1849 35.659C89.5543 30.2794 84.6899 25.8016 78.9966 22.6322V58.713C78.9966 69.783 70.0228 78.757 58.9528 78.757C47.8828 78.757 38.9088 69.783 38.9088 58.713C38.9088 47.643 47.8828 38.669 58.9528 38.669C63.1015 38.669 66.9559 39.9295 70.1538 42.0883V0.822853C83.1672 3.32587 94.658 10.1079 103.105 19.6473Z" fill="white"/>
</svg>
